fs/speaker_edit_20_filled.svg

<svg viewBox="0 0 20 20" fill="none" xmlns="http://www.w3.org/2000/svg" height="1em" width="1em">
  <path d="M11.999 3.00212C11.999 2.12897 10.9588 1.67508 10.3189 2.26901L6.44714 5.8629C6.35468 5.94872 6.2332 5.99642 6.10706 5.99642H3.49984C2.6715 5.99642 2 6.66808 2 7.49663V12.4973C2 13.3259 2.6715 13.9975 3.49984 13.9975H6.10706C6.2332 13.9975 6.35468 14.0452 6.44714 14.1311L9.27923 16.7599L9.43086 16.1532C9.57138 15.591 9.86202 15.0775 10.2717 14.6677L11.999 12.94V3.00212ZM15.9583 4.6626C17.1069 5.94478 17.7697 7.5082 17.9469 9.11501C17.6146 9.01667 17.2681 8.97971 16.9251 9.00411C16.736 7.67641 16.1655 6.39264 15.2136 5.33C15.0294 5.12431 15.0467 4.80816 15.2524 4.62386C15.458 4.43956 15.7741 4.45691 15.9583 4.6626ZM14.7589 7.24653C15.1749 7.96733 15.4092 8.7431 15.4762 9.52076C15.3444 9.61394 15.2187 9.71956 15.1006 9.83761L14.4715 10.4669C14.5682 9.55342 14.387 8.60251 13.8929 7.7466C13.7549 7.50742 13.8368 7.20159 14.0759 7.06349C14.315 6.9254 14.6208 7.00735 14.7589 7.24653ZM10.9788 15.3749L15.8077 10.5448C16.538 9.81436 17.722 9.81436 18.4523 10.5448C19.1826 11.2753 19.1826 12.4596 18.4523 13.19L13.6234 18.0201C13.3418 18.3017 12.9891 18.5015 12.6028 18.5981L11.105 18.9726C10.4537 19.1355 9.8637 18.5454 10.0265 17.8939L10.401 16.3958C10.4975 16.0094 10.6973 15.6565 10.9788 15.3749Z" fill="#212121"/>
</svg>

<svg viewBox="0 0 20 20" fill="none" xmlns="http://www.w3.org/2000/svg" height="1em" width="1em">
  <path d="M11.999 3.002c0-.873-1.04-1.327-1.68-.733L6.447 5.863a.5.5 0 0 1-.34.133H3.5a1.5 1.5 0 0 0-1.5 1.5v5.001a1.5 1.5 0 0 0 1.5 1.5h2.607a.5.5 0 0 1 .34.134L9.28 16.76l.152-.607c.14-.562.431-1.075.84-1.485L12 12.94V3.002Zm3.96 1.66a7.965 7.965 0 0 1 1.988 4.453 2.882 2.882 0 0 0-1.022-.11 6.965 6.965 0 0 0-1.711-3.675.5.5 0 0 1 .744-.667Zm-1.2 2.585c.416.72.65 1.496.717 2.274a2.896 2.896 0 0 0-.375.317l-.63.629a4.48 4.48 0 0 0-.578-2.72.5.5 0 0 1 .866-.5Zm-3.78 8.128 4.829-4.83a1.87 1.87 0 1 1 2.644 2.645l-4.829 4.83a2.197 2.197 0 0 1-1.02.578l-1.498.375a.89.89 0 0 1-1.079-1.08l.375-1.497c.097-.387.296-.74.578-1.021Z" fill="#212121"/>
</svg>
